X:081
T:Lady Mary Ramsay’s Reel TS.081
T:Mary Ramsay TS.081
M:C
L:1/8
Q:1/2=90
S:Thomas Sands’ MS,1810,Lincolnshire
R:reel
O:England;Lincolnshire
C:Nath. Gow
Z:vmp.Ruairidh Greig, 2011
K:D
D2DF AFFA|F/G/”s-q in ms”A DF AFFd|D2DF AFFA|BdAFE2z2:|
fddf ecce|dBBd AFFD|fddf ecce|dBAFE2z2|
fddf ecce|dBBd AFFD|dfce BdAd|FdAF E2z2|]

